X:1
T:Title
%%score 1 2
L:1/8
Q:1/4=80
M:4/4
K:G
V:1 treble nm="Violin, SOPRANO ALTO"
V:2 bass nm="Strings 1, TENOR BASS"
V:1
 z4 z2 [DB][CA] | [B,G]>[B,G] [B,G][B,D] [CE][EG][DG][GB] | [FA]>[=F^G] [^FA][FA] [=GB]2 [DB][DA] | %3
w: 1.~Are~ you~|of~ the~ ho ly~ rem nant,~ Gath ered~|to~ the~ King~ of~ Peace?~ Have~ you~|
 [DG]>[DG] [DG][B,D] [CE][EG][DG][GB] | [FA]>G [GB][DA] [DG]2[Q:1/4=80] [DG][GB][Q:1/4=12] | %5
w: found~ a~ full~ a tone ment,~ And~ a|bun dance~ of~ His~ grace?~ Yes,~ my~|
 [Gd]>[Gd] [Ge][Gd] [Gd][GB]G[GB] | [FA]>[=F^G] [^FA][FA] [=GB]2 [DB][DA] | %7
w: soul~ has~ come~ to~ Zi on,~ On~ the~|high~ and~ ho ly~ way,~ And~ I've~|
 [DG]>[DG] [DG][B,D] [CE][EG][DG][GB] | [FA]>G [GB][DA] [DG]2[Q:1/4=80] z2[Q:1/4=12] |] %9
w: seen~ the~ dark ness~ fly ing,~ Driv en~|by~ the~ light~ of~ day.~|
V:2
 z4 z2 [G,,G,][G,,G,] | [G,,G,]>[G,,G,] [G,,G,][G,,G,] [C,G,][C,G,][G,,B,][G,,D] | %2
 [D,D]>[D,D] [D,D][D,D] [G,D]2 [G,,D][G,,C] | %3
 [G,,B,]>[G,,B,] [G,,B,][G,,G,] [C,G,][C,G,][G,,B,][G,,D] | %4
 [D,C]>[D,B,] [D,D][D,C] [G,,G,B,]2 [G,B,][G,D] | %5
 [G,B,]>[G,B,] [G,C][G,B,] [G,B,][D,D][B,,D][G,,D] | [D,D]>[D,D] [D,D][D,D] [G,D]2 [G,,D][G,,C] | %7
 [G,,B,]>[G,,B,] [G,,B,][G,,G,] [C,G,][C,G,][G,,B,][G,,D] | %8
 [D,C]>[D,B,] [D,D][D,C] [G,,G,B,]2 z2 |] %9

